X: 35257
T: Rose And Kathleen's
R: slip jig
M: 9/8
K: Gmajor
|:G2 g gab agf|g2 d d2 B B2 G|G2 g gab agf|g2 d d2 B B2 G|
e2 g- ged ged|e2 g- ged{/A} B2 A|G2 d dgg gab|Gdd dgg gab|
aaa afd afd|egg ged e2 d|G2 d ded ded|ded ded ded:|
|:e2 d- d2 c BAG|e2 d- d2 c BAG|e2 g- ged e2 G|e2 g- ged e2 G|
B2 g- ged e2 G|B2 g- ged edB|A2 d ded ded|ded ded ded:|

